src/img/about_star4.svg

<svg width="118" height="118" viewBox="0 0 118 118" fill="none" xmlns="http://www.w3.org/2000/svg">
<path d="M48.4439 87.2151L44.9371 67.0179C43.3048 57.5988 35.8929 50.2494 26.4582 48.6796L6.22974 45.329L26.4269 41.8222C35.846 40.1899 43.1954 32.778 44.7653 23.3433L48.1159 3.11483L51.6227 23.312C53.255 32.7311 60.6669 40.0805 70.1016 41.6504L90.33 45.001L70.1328 48.5156C60.7137 50.1479 53.3565 57.5598 51.7945 66.9867L48.4439 87.2151Z" stroke="black" stroke-miterlimit="10"/>
</svg>

<svg width="118" height="118" fill="none" xmlns="http://www.w3.org/2000/svg"><path d="m48.444 87.215-3.507-20.197c-1.632-9.42-9.044-16.769-18.479-18.338L6.23 45.329l20.197-3.507c9.419-1.632 16.768-9.044 18.338-18.479l3.35-20.228 3.508 20.197c1.632 9.42 9.044 16.768 18.479 18.338l20.228 3.351-20.197 3.515a22.48 22.48 0 0 0-18.338 18.47l-3.351 20.23Z" stroke="#000" stroke-miterlimit="10"/></svg>
